X:409
T: ELBERFELD DU SCHOENES STAEDTCHEN
N: E1601
O: Europa, Mitteleuropa, Deutschland, Hessen, Wetzlar; Unter - Taunus
R: Staende -, Handwerker -, Gesellen - Lied; Abschied, Wanderschaft
M: 4/4
L: 1/8
K: C
G,2G,2 | C2G,2A,2B,2 | CG,G,2
G,3F, | F,3F,E,G,CE | D2z2
G,2G,2 | C2G,2A,2B,2 | CG,G,2
G,3F, | F,3F,E,G,CE | D2z2
D2DF | E2E2D2D2 | EDCB,
A,3B, | C3G,G,B,DF | E2z2

